!!!SOCIAL_FUNCTION:	songs used in treating the sick
!!!PDT:	1936
!!!OTL: No_31_Song_Received_from_a_Buffalo.krn
!!!REG: Oklahoma and Montana
!!!LANG: Tone
!!!LING_GROUP: Algonquin
**kern
*staff1
=1-
*clefF4
*k[b-e-a-]
*M2/4
16.c\LL
32G\JK
8G\J
8G\
8r
=2
16.G\LL
32G\JK
8G\J
8G\
8r
=3!|:
16.c\LL
32G\JK
8G\J
8G\
8r
=4
16.G\LL
32G\JK
8G\J
8G\
8r
=5
8.G\L
16G\Jk
4G\
=6
8.F\L
16F\Jk
16F\LK
8.E-\J
=7
8.F\L
16F\Jk
16F\LL
16E-\J
8E-\J
=8
8.C/L
16C/Jk
8C/
8r
=9
8.F\L
16F\Jk
4F\
=10
8.G\L
16G\Jk
8G\
16r
(16G\
=11
8.F\L)
16F\Jk
16F\LK
8.E-\J
=12
8.F\L
16F\Jk
16F\LL
16E-\J
8E-\J
=13
8.C/L
16C/Jk
8C/
16r
(16E-\
=14
8.C/L)
16C/Jk
4C/
=15
*M3/4
8.C/L
16C/Jk
4C/
8.r
16G\
=16
*M2/4
8.G\L
16G\Jk
8G\
8r
=17:|!
=
8.C/L
16C/Jk
4C/
==
*-
